eperusteet-opintopolku-app/v2/public/img/icons/faq.svg

<?xml version="1.0" encoding="UTF-8"?>
<svg width="20px" height="20px" viewBox="0 0 20 20" version="1.1" xmlns="http://www.w3.org/2000/svg" xmlns:xlink="http://www.w3.org/1999/xlink">
    <!-- Generator: sketchtool 58 (101010) - https://sketch.com -->
    <title>AC0B1411-3829-47B4-8A45-182ED65A6C71@2x</title>
    <desc>Created with sketchtool.</desc>
    <defs>
        <path d="M15.4,0 C16.2311111,0 16.9195062,0.642222222 16.9934294,1.45491084 L17,1.6 L17,4 L18.4,4 C19.28,4 20,4.72 20,5.6 L20,20 L17,17 L4.6,17 C3.72,17 3,16.28 3,15.4 L3,13 L0,16 L0,1.6 C0,0.768888889 0.642222222,0.0804938272 1.45491084,0.00657064472 L1.6,0 L15.4,0 Z M18,6 L5,6 L5,15 L17,15 L18,16 L18,6 Z M12.1285714,12.8333333 L12.1285714,14 L10.8714286,14 L10.8714286,12.8333333 L12.1285714,12.8333333 Z M11.5,7 C12.9,7 14,8.00094697 14,9.30018939 C14,10.7194478 12.3203799,10.9309814 12.1435778,12.0540231 L12.1285714,12.25 L10.8714286,12.25 C10.8714286,10.3409091 12.75,10.4602273 12.75,9.30018939 C12.75,8.68371212 12.1642857,8.14015152 11.5,8.14015152 C10.8772321,8.14015152 10.3235212,8.61789033 10.25674,9.1855693 L10.25,9.30018939 L9,9.30018939 C9,8.00757576 10.1,7 11.5,7 Z M15,2 L2,2 L2,12 L2.99653041,11 L3,10.999 L3,5.6 C3,4.72 3.72,4 4.6,4 L14.999,4 L15,2 Z" id="path-1"></path>
    </defs>
    <g id="ASSETIT" stroke="none" stroke-width="1" fill="none" fill-rule="evenodd">
        <g id="ASSETIT---IKONIT" transform="translate(-189.000000, -196.000000)">
            <g id="Ikonit/FAQ" transform="translate(189.000000, 196.000000)">
                <g>
                    <mask id="mask-2" fill="white">
                        <use xlink:href="#path-1"></use>
                    </mask>
                    <use id="Mask" fill="#000000" fill-rule="nonzero" xlink:href="#path-1"></use>
                    <g id="Värit/Tumma-harmaa" mask="url(#mask-2)" fill="#575757">
                        <rect id="Rectangle" x="0" y="0" width="20" height="20"></rect>
                    </g>
                </g>
            </g>
        </g>
    </g>
</svg>

<svg width="20" height="20" xmlns="http://www.w3.org/2000/svg">
    <path d="M15.4 0c.831 0 1.52.642 1.593 1.455L17 1.6V4h1.4c.88 0 1.6.72 1.6 1.6V20l-3-3H4.6c-.88 0-1.6-.72-1.6-1.6V13l-3 3V1.6C0 .769.642.08 1.455.007L1.6 0h13.8zM18 6H5v9h12l1 1V6zm-5.871 6.833V14H10.87v-1.167h1.258zM11.5 7C12.9 7 14 8 14 9.3c0 1.42-1.68 1.631-1.856 2.754l-.015.196H10.87c0-1.91 1.879-1.79 1.879-2.95 0-.616-.586-1.16-1.25-1.16-.623 0-1.176.478-1.243 1.046l-.007.114H9C9 8.008 10.1 7 11.5 7zM15 2H2v10l.997-1L3 10.999V5.6C3 4.72 3.72 4 4.6 4h10.399L15 2z"/>
</svg>
